X:679
T:How much has she got?
R:Jig
O:Ireland
B:Krassen O'Neill's p70
B:O'Neill's 1102
S:O'Neill's 1102
Z:Transcription, chords:Mike Long
M:6/8
L:1/8
K:A
g|:\
"A"aed cBA|ecA A2g|aed cBA|"E"dBG G2g|\
"A"aed cBA|"D"def "A"efg|"D"agf "G"=gfe|"E"dBG "A"A2:|
|:"A"A2a aec|aec ABA|"G"=G2g gdB|=gdB G2B|\
"A"A2a aec|"D"def "A"efg|"D"agf "G"=gfe|"E"dBG "A"A2:|
